media/icon-file-type/svgs/presentation/16.svg

<svg width="16" height="16" viewBox="0 0 16 16"><path fill="#8270DB" fill-rule="evenodd" d="M2,0 L14,0 C15.1045695,-2.02906125e-16 16,0.8954305 16,2 L16,14 C16,15.1045695 15.1045695,16 14,16 L2,16 C0.8954305,16 1.3527075e-16,15.1045695 0,14 L0,2 C-1.3527075e-16,0.8954305 0.8954305,2.02906125e-16 2,0 Z M12,3 C11.4477153,3 11,3.44771525 11,4 L11,12 C11,12.5522847 11.4477153,13 12,13 C12.5522847,13 13,12.5522847 13,12 L13,4 C13,3.44771525 12.5522847,3 12,3 Z M8,6 C7.44771525,6 7,6.44771525 7,7 L7,12 C7,12.5522847 7.44771525,13 8,13 C8.55228475,13 9,12.5522847 9,12 L9,7 C9,6.44771525 8.55228475,6 8,6 Z M4,9 C3.44771525,9 3,9.44771525 3,10 L3,12 C3,12.5522847 3.44771525,13 4,13 C4.55228475,13 5,12.5522847 5,12 L5,10 C5,9.44771525 4.55228475,9 4,9 Z"/></svg>

<svg width="16" height="16" viewBox="0 0 16 16"><path fill="#6554C0" fill-rule="evenodd" d="M2 0h12a2 2 0 012 2v12a2 2 0 01-2 2H2a2 2 0 01-2-2V2a2 2 0 012-2zm10 3a1 1 0 00-1 1v8a1 1 0 002 0V4a1 1 0 00-1-1zM8 6a1 1 0 00-1 1v5a1 1 0 002 0V7a1 1 0 00-1-1zM4 9a1 1 0 00-1 1v2a1 1 0 002 0v-2a1 1 0 00-1-1z"/></svg>
